qml/icons/navigation/off-ramp-right-white.svg

<svg id="WORKING_ICONS" data-name="WORKING ICONS" xmlns="http://www.w3.org/2000/svg" width="20" height="20" viewBox="0 0 20 20">
  <title>direction</title>
  <path fill="#ffffff" d="M6.5029,2.2A0.29744,0.29744,0,0,1,6.8,2.49712V17.50288A0.29744,0.29744,0,0,1,6.5029,17.8H5.4971A0.29744,0.29744,0,0,1,5.2,17.50288V2.49712A0.29744,0.29744,0,0,1,5.4971,2.2H6.5029m0-.2H5.4971A0.49711,0.49711,0,0,0,5,2.49712V17.50288A0.49711,0.49711,0,0,0,5.4971,18H6.5029A0.49711,0.49711,0,0,0,7,17.50288V2.49712A0.49711,0.49711,0,0,0,6.5029,2h0Zm4.5054,5.98169h1.98755a0.3576,0.3576,0,0,1,.37738.54248L12.02948,11.476a0.38659,0.38659,0,0,0,.62354.40942L19,7,12.653,2.078a0.38659,0.38659,0,0,0-.62354.40942l1.34375,2.95184a0.35757,0.35757,0,0,1-.37738.54242H11.0083V5.97986l-0.011.00183a6.06019,6.06019,0,0,0-5.989,6.07324V16H5.01141l-0.002,1.50317A0.49614,0.49614,0,0,0,5.50562,18H6.51208a0.49622,0.49622,0,0,0,.49622-0.49622V12.05493a4.05782,4.05782,0,0,1,3.98877-4.07324H11.0083Z"/>
</svg>

<svg data-name="WORKING ICONS" xmlns="http://www.w3.org/2000/svg" width="20" height="20"><path fill="#fff" d="M6.503 2.2a.297.297 0 0 1 .297.297v15.006a.297.297 0 0 1-.297.297H5.497a.297.297 0 0 1-.297-.297V2.497a.297.297 0 0 1 .297-.297h1.006m0-.2H5.497A.497.497 0 0 0 5 2.497v15.006a.497.497 0 0 0 .497.497h1.006A.497.497 0 0 0 7 17.503V2.497A.497.497 0 0 0 6.503 2Zm4.505 5.982h1.988a.358.358 0 0 1 .377.542l-1.344 2.952a.387.387 0 0 0 .624.41L19 7l-6.347-4.922a.387.387 0 0 0-.624.41l1.344 2.951a.358.358 0 0 1-.377.543h-1.988V5.98l-.01.002a6.06 6.06 0 0 0-5.99 6.073V16h.003l-.002 1.503a.496.496 0 0 0 .497.497h1.006a.496.496 0 0 0 .496-.496v-5.45a4.058 4.058 0 0 1 3.99-4.072h.01Z"/></svg>
